Newaita-dark/mimetypes/scalable/image-x-xcf.svg

<?xml version="1.0" encoding="UTF-8"?>
<svg xmlns="http://www.w3.org/2000/svg" xmlns:xlink="http://www.w3.org/1999/xlink" width="512pt" height="512pt" viewBox="0 0 512 512" version="1.1">
<defs>
<linearGradient id="linear0" gradientUnits="userSpaceOnUse" x1="254" y1="233.5" x2="254" y2="254.666672" gradientTransform="matrix(1.000095,0,0,1.000095,10.584324,215.020562)">
<stop offset="0" style="stop-color:rgb(0%,0%,0%);stop-opacity:0.27451;"/>
<stop offset="1" style="stop-color:rgb(0%,0%,0%);stop-opacity:0;"/>
</linearGradient>
<radialGradient id="radial0" gradientUnits="userSpaceOnUse" cx="450.908936" cy="189.579361" fx="450.908936" fy="189.579361" r="21.166656" gradientTransform="matrix(0.00000278673,-1.250119,-2.250215,-0.00000162462,791.753107,1017.525321)">
<stop offset="0" style="stop-color:rgb(0%,0%,0%);stop-opacity:0.313725;"/>
<stop offset="0.222222" style="stop-color:rgb(0%,0%,0%);stop-opacity:0.27451;"/>
<stop offset="1" style="stop-color:rgb(0%,0%,0%);stop-opacity:0;"/>
</radialGradient>
<radialGradient id="radial1" gradientUnits="userSpaceOnUse" cx="450.908936" cy="189.579361" fx="450.908936" fy="189.579361" r="21.166656" gradientTransform="matrix(-0.00000278673,1.250119,2.250215,0.00000162462,-294.288782,-120.439662)">
<stop offset="0" style="stop-color:rgb(0%,0%,0%);stop-opacity:0.313725;"/>
<stop offset="0.222222" style="stop-color:rgb(0%,0%,0%);stop-opacity:0.27451;"/>
<stop offset="1" style="stop-color:rgb(0%,0%,0%);stop-opacity:0;"/>
</radialGradient>
<radialGradient id="radial2" gradientUnits="userSpaceOnUse" cx="450.908936" cy="189.579361" fx="450.908936" fy="189.579361" r="21.166656" gradientTransform="matrix(-0.00000278673,-1.250119,2.250215,-0.00000162462,-294.288782,1017.525321)">
<stop offset="0" style="stop-color:rgb(0%,0%,0%);stop-opacity:0.313725;"/>
<stop offset="0.222222" style="stop-color:rgb(0%,0%,0%);stop-opacity:0.27451;"/>
<stop offset="1" style="stop-color:rgb(0%,0%,0%);stop-opacity:0;"/>
</radialGradient>
<radialGradient id="radial3" gradientUnits="userSpaceOnUse" cx="450.908936" cy="189.579361" fx="450.908936" fy="189.579361" r="21.166656" gradientTransform="matrix(0.00000278673,1.250119,-2.250215,0.00000162462,791.753076,-120.43967)">
<stop offset="0" style="stop-color:rgb(0%,0%,0%);stop-opacity:0.313725;"/>
<stop offset="0.222222" style="stop-color:rgb(0%,0%,0%);stop-opacity:0.27451;"/>
<stop offset="1" style="stop-color:rgb(0%,0%,0%);stop-opacity:0;"/>
</radialGradient>
<linearGradient id="linear1" gradientUnits="userSpaceOnUse" x1="940" y1="1695.118164" x2="940" y2="175.118118" gradientTransform="matrix(0.264609,0,0,0.264609,0,0)">
<stop offset="0" style="stop-color:rgb(73.72549%,66.666667%,64.313725%);stop-opacity:1;"/>
<stop offset="1" style="stop-color:rgb(84.313725%,80%,78.431373%);stop-opacity:1;"/>
</linearGradient>
<linearGradient id="linear2" gradientUnits="userSpaceOnUse" x1="249.189423" y1="233.5" x2="249.189423" y2="254.666687" gradientTransform="matrix(0.478307,0,0,1.750165,240.678774,-261.774569)">
<stop offset="0" style="stop-color:rgb(0%,0%,0%);stop-opacity:0.27451;"/>
<stop offset="1" style="stop-color:rgb(0%,0%,0%);stop-opacity:0;"/>
</linearGradient>
<linearGradient id="linear3" gradientUnits="userSpaceOnUse" x1="338.666656" y1="233.5" x2="338.666656" y2="-168.666672" gradientTransform="matrix(1.000095,0,0,1.000095,0,215.020531)">
<stop offset="0" style="stop-color:rgb(55.294118%,43.137255%,38.823529%);stop-opacity:1;"/>
<stop offset="1" style="stop-color:rgb(63.137255%,53.333333%,49.803922%);stop-opacity:1;"/>
</linearGradient>
<linearGradient id="linear4" gradientUnits="userSpaceOnUse" x1="940" y1="1695.118164" x2="940" y2="175.118118" >
<stop offset="0" style="stop-color:rgb(55.294118%,43.137255%,38.823529%);stop-opacity:1;"/>
<stop offset="1" style="stop-color:rgb(63.137255%,53.333333%,49.803922%);stop-opacity:1;"/>
</linearGradient>
</defs>
<g id="surface1">
<path style=" stroke:none;fill-rule:nonzero;fill:url(#linear0);" d="M 127.011719 448.542969 L 370.453125 448.542969 L 370.453125 469.710938 L 127.011719 469.710938 Z M 127.011719 448.542969 "/>
<path style=" stroke:none;fill-rule:nonzero;fill:url(#radial0);" d="M 370.453125 448.542969 L 412.789062 448.542969 L 412.789062 427.375 L 370.453125 427.375 Z M 370.453125 448.542969 "/>
<path style=" stroke:none;fill-rule:nonzero;fill:url(#radial1);" d="M 127.011719 448.542969 L 84.675781 448.542969 L 84.675781 469.710938 L 127.011719 469.710938 Z M 127.011719 448.542969 "/>
<path style=" stroke:none;fill-rule:nonzero;fill:url(#radial2);" d="M 127.011719 448.542969 L 84.675781 448.542969 L 84.675781 427.375 L 127.011719 427.375 Z M 127.011719 448.542969 "/>
<path style=" stroke:none;fill-rule:nonzero;fill:url(#radial3);" d="M 370.453125 448.542969 L 412.789062 448.542969 L 412.789062 469.710938 L 370.453125 469.710938 Z M 370.453125 448.542969 "/>
<path style=" stroke:none;fill-rule:nonzero;fill:url(#linear1);" d="M 296.671875 46.335938 L 105.84375 46.335938 C 94.117188 46.335938 84.675781 55.777344 84.675781 67.507812 L 84.675781 427.375 C 84.675781 439.101562 94.117188 448.542969 105.84375 448.542969 L 391.621094 448.542969 C 403.347656 448.542969 412.789062 439.101562 412.789062 427.375 L 412.789062 162.453125 Z M 296.671875 46.335938 "/>
<path style=" stroke:none;fill-rule:nonzero;fill:url(#linear2);" d="M 296.363281 146.890625 L 396.914062 146.890625 L 412.789062 162.765625 L 412.789062 183.933594 L 296.363281 183.933594 Z M 296.363281 146.890625 "/>
<path style=" stroke:none;fill-rule:nonzero;fill:rgb(0%,0%,0%);fill-opacity:0.235294;" d="M 84.675781 419.15625 L 84.675781 427.375 C 84.675781 439.101562 94.117188 448.542969 105.84375 448.542969 L 391.621094 448.542969 C 403.347656 448.542969 412.789062 439.101562 412.789062 427.375 L 412.789062 419.15625 C 412.789062 430.882812 403.347656 440.324219 391.621094 440.324219 L 105.84375 440.324219 C 94.117188 440.324219 84.675781 430.882812 84.675781 419.15625 Z M 84.675781 419.15625 "/>
<path style=" stroke:none;fill-rule:nonzero;fill:rgb(96.470588%,96.470588%,96.470588%);fill-opacity:0.588235;" d="M 105.84375 46.335938 C 94.117188 46.335938 84.675781 55.777344 84.675781 67.507812 L 84.675781 75.445312 C 84.675781 63.71875 94.117188 54.277344 105.84375 54.277344 L 296.671875 54.277344 L 412.789062 170.390625 L 412.789062 162.453125 L 296.671875 46.335938 Z M 105.84375 46.335938 "/>
<path style=" stroke:none;fill-rule:nonzero;fill:url(#linear3);" d="M 412.789062 162.453125 L 296.671875 46.335938 L 296.671875 141.285156 C 296.671875 153.011719 306.113281 162.453125 317.839844 162.453125 Z M 412.789062 162.453125 "/>
<path style=" stroke:none;fill-rule:nonzero;fill:rgb(0%,0%,0%);fill-opacity:0.235294;" d="M 296.671875 136.304688 L 296.671875 141.285156 C 296.671875 153.011719 306.113281 162.453125 317.839844 162.453125 L 412.789062 162.453125 L 407.808594 157.472656 L 317.839844 157.472656 C 306.113281 157.472656 296.671875 148.03125 296.671875 136.304688 Z M 296.671875 136.304688 "/>
<path style=" stroke:none;fill-rule:nonzero;fill:rgb(100%,100%,100%);fill-opacity:0.392157;" d="M 296.671875 46.335938 L 296.671875 54.277344 L 404.851562 162.453125 L 412.789062 162.453125 Z M 296.671875 46.335938 "/>
<path style=" stroke:none;fill-rule:nonzero;fill:rgb(12.941177%,12.941177%,12.941177%);fill-opacity:1;" d="M 296.652344 44.839844 C 295.832031 44.851562 295.171875 45.515625 295.171875 46.335938 L 295.171875 141.285156 C 295.171875 153.816406 305.308594 163.953125 317.839844 163.953125 L 412.789062 163.953125 C 413.394531 163.953125 413.941406 163.585938 414.175781 163.027344 C 414.40625 162.464844 414.277344 161.820312 413.851562 161.390625 L 297.734375 45.277344 C 297.445312 44.988281 297.054688 44.832031 296.652344 44.839844 Z M 298.171875 49.957031 L 409.167969 160.953125 L 317.839844 160.953125 C 306.917969 160.953125 298.171875 152.207031 298.171875 141.285156 Z M 298.171875 49.957031 "/>
<path style=" stroke:none;fill-rule:nonzero;fill:rgb(12.941177%,12.941177%,12.941177%);fill-opacity:1;" d="M 105.84375 44.835938 C 93.3125 44.835938 83.175781 54.972656 83.175781 67.507812 L 83.175781 427.375 C 83.175781 439.90625 93.3125 450.042969 105.84375 450.042969 L 391.621094 450.042969 C 404.152344 450.042969 414.289062 439.90625 414.289062 427.375 L 414.289062 162.453125 C 414.289062 162.054688 414.132812 161.675781 413.851562 161.394531 L 297.734375 45.277344 C 297.453125 44.996094 297.070312 44.835938 296.671875 44.835938 Z M 105.84375 47.835938 L 296.050781 47.835938 L 411.289062 163.074219 L 411.289062 427.375 C 411.289062 438.296875 402.542969 447.042969 391.621094 447.042969 L 105.84375 447.042969 C 94.921875 447.042969 86.175781 438.296875 86.175781 427.375 L 86.175781 67.507812 C 86.175781 56.582031 94.921875 47.835938 105.84375 47.835938 Z M 105.84375 47.835938 "/>
<path style="fill-rule:nonzero;fill:url(#linear4);stroke-width:11.338583;stroke-linecap:round;stroke-linejoin:round;stroke:rgb(12.941177%,12.941177%,12.941177%);stroke-opacity:1;stroke-miterlimit:4;" d="M 620.004801 695.115743 C 608.918261 695.115743 600.001789 704.032215 600.001789 715.118755 L 600.001789 1235.123258 C 600.001789 1246.195036 608.918261 1255.111508 620.004801 1255.111508 L 1259.997853 1255.111508 C 1271.084393 1255.111508 1280.000865 1246.195036 1280.000865 1235.123258 L 1280.000865 715.118755 C 1280.000865 704.032215 1271.084393 695.115743 1259.997853 695.115743 Z M 700.002088 775.113029 L 1180.000567 775.113029 C 1191.087107 775.113029 1200.003579 784.044263 1200.003579 795.116041 L 1200.003579 1155.11121 C 1200.003579 1166.19775 1189.108949 1181.432517 1180.000567 1175.114222 C 1142.799393 1149.280073 1120.006293 1115.119948 1080.000268 1115.119948 C 1033.469276 1115.119948 989.669323 1155.125972 939.993946 1155.11121 C 900.002684 1155.11121 879.999672 1035.122662 820.005398 1035.122662 C 759.996362 1035.122662 754.770482 1069.164688 700.002088 1175.114222 C 694.90907 1184.960723 679.999075 1166.19775 679.999075 1155.11121 L 679.999075 795.116041 C 679.999075 784.044263 688.915547 775.113029 700.002088 775.113029 Z M 1050.003131 835.122065 C 1011.222384 835.122065 979.99997 866.344479 979.99997 905.110464 C 979.99997 943.891212 1011.222384 975.113625 1050.003131 975.113625 C 1088.783879 975.113625 1120.006293 943.891212 1120.006293 905.110464 C 1120.006293 866.344479 1088.783879 835.122065 1050.003131 835.122065 Z M 1050.003131 835.122065 " transform="matrix(0.264609,0,0,0.264609,0,0)"/>
</g>
</svg>

<svg xmlns="http://www.w3.org/2000/svg" width="512pt" height="512pt" viewBox="0 0 512 512"><defs><linearGradient id="a" gradientUnits="userSpaceOnUse" x1="254" y1="233.5" x2="254" y2="254.667" gradientTransform="matrix(1.0001 0 0 1.0001 10.584 215.02)"><stop offset="0" stop-opacity=".275"/><stop offset="1" stop-opacity="0"/></linearGradient><radialGradient id="b" gradientUnits="userSpaceOnUse" cx="450.909" cy="189.579" fx="450.909" fy="189.579" r="21.167" gradientTransform="matrix(0 -1.25012 -2.25021 0 791.753 1017.525)"><stop offset="0" stop-opacity=".314"/><stop offset=".222" stop-opacity=".275"/><stop offset="1" stop-opacity="0"/></radialGradient><radialGradient id="c" gradientUnits="userSpaceOnUse" cx="450.909" cy="189.579" fx="450.909" fy="189.579" r="21.167" gradientTransform="matrix(0 1.25012 2.25021 0 -294.289 -120.44)"><stop offset="0" stop-opacity=".314"/><stop offset=".222" stop-opacity=".275"/><stop offset="1" stop-opacity="0"/></radialGradient><radialGradient id="d" gradientUnits="userSpaceOnUse" cx="450.909" cy="189.579" fx="450.909" fy="189.579" r="21.167" gradientTransform="matrix(0 -1.25012 2.25021 0 -294.289 1017.525)"><stop offset="0" stop-opacity=".314"/><stop offset=".222" stop-opacity=".275"/><stop offset="1" stop-opacity="0"/></radialGradient><radialGradient id="e" gradientUnits="userSpaceOnUse" cx="450.909" cy="189.579" fx="450.909" fy="189.579" r="21.167" gradientTransform="matrix(0 1.25012 -2.25021 0 791.753 -120.44)"><stop offset="0" stop-opacity=".314"/><stop offset=".222" stop-opacity=".275"/><stop offset="1" stop-opacity="0"/></radialGradient><linearGradient id="f" gradientUnits="userSpaceOnUse" x1="940" y1="1695.118" x2="940" y2="175.118" gradientTransform="rotate(.158) scale(.26461)"><stop offset="0" stop-color="#bcaaa4"/><stop offset="1" stop-color="#d7ccc8"/></linearGradient><linearGradient id="g" gradientUnits="userSpaceOnUse" x1="249.189" y1="233.5" x2="249.189" y2="254.667" gradientTransform="matrix(.4783 0 0 1.75016 240.679 -261.775)"><stop offset="0" stop-opacity=".275"/><stop offset="1" stop-opacity="0"/></linearGradient><linearGradient id="h" gradientUnits="userSpaceOnUse" x1="338.667" y1="233.5" x2="338.667" y2="-168.667" gradientTransform="matrix(1.0001 0 0 1.0001 0 215.02)"><stop offset="0" stop-color="#8d6e63"/><stop offset="1" stop-color="#a1887f"/></linearGradient><linearGradient id="i" gradientUnits="userSpaceOnUse" x1="940" y1="1695.118" x2="940" y2="175.118"><stop offset="0" stop-color="#8d6e63"/><stop offset="1" stop-color="#a1887f"/></linearGradient></defs><path d="M127.012 448.543h243.441v21.168H127.012zm0 0" fill="url(#a)"/><path d="M370.453 448.543h42.336v-21.168h-42.336zm0 0" fill="url(#b)"/><path d="M127.012 448.543H84.676v21.168h42.336zm0 0" fill="url(#c)"/><path d="M127.012 448.543H84.676v-21.168h42.336zm0 0" fill="url(#d)"/><path d="M370.453 448.543h42.336v21.168h-42.336zm0 0" fill="url(#e)"/><path d="M296.672 46.336H105.844a21.123 21.123 0 0 0-21.168 21.172v359.867a21.122 21.122 0 0 0 21.168 21.168H391.62a21.122 21.122 0 0 0 21.168-21.168V162.453zm0 0" fill="url(#f)"/><path d="M296.363 146.89h100.551l15.875 15.876v21.168H296.363zm0 0" fill="url(#g)"/><path d="M84.676 419.156v8.219a21.122 21.122 0 0 0 21.168 21.168H391.62a21.122 21.122 0 0 0 21.168-21.168v-8.219a21.122 21.122 0 0 1-21.168 21.168H105.844a21.122 21.122 0 0 1-21.168-21.168zm0 0" fill-opacity=".235"/><path d="M105.844 46.336a21.123 21.123 0 0 0-21.168 21.172v7.937a21.122 21.122 0 0 1 21.168-21.168h190.828l116.117 116.114v-7.938L296.672 46.336zm0 0" fill="#f6f6f6" fill-opacity=".588"/><path d="M412.79 162.453L296.671 46.336v94.95a21.122 21.122 0 0 0 21.168 21.167zm0 0" fill="url(#h)"/><path d="M296.672 136.305v4.98a21.122 21.122 0 0 0 21.168 21.168h94.95l-4.981-4.98h-89.97a21.122 21.122 0 0 1-21.167-21.168zm0 0" fill-opacity=".235"/><path d="M296.672 46.336v7.941l108.18 108.176h7.937zm0 0" fill="#fff" fill-opacity=".392"/><path d="M296.652 44.84c-.82.012-1.48.676-1.48 1.496v94.95c0 12.53 10.137 22.667 22.668 22.667h94.95c.605 0 1.151-.367 1.386-.926a1.512 1.512 0 0 0-.324-1.636L297.734 45.277c-.289-.289-.68-.445-1.082-.437zm1.52 5.117l110.996 110.996H317.84a19.592 19.592 0 0 1-19.668-19.668zm0 0" fill="#212121"/><path d="M105.844 44.836c-12.531 0-22.668 10.137-22.668 22.672v359.867c0 12.531 10.136 22.668 22.668 22.668H391.62c12.531 0 22.668-10.137 22.668-22.668V162.453c0-.398-.156-.777-.437-1.058L297.734 45.277a1.505 1.505 0 0 0-1.062-.441zm0 3H296.05l115.238 115.238v264.301a19.592 19.592 0 0 1-19.668 19.668H105.844a19.592 19.592 0 0 1-19.668-19.668V67.508a19.593 19.593 0 0 1 19.668-19.672zm0 0" fill="#212121"/><path d="M620.005 695.116a19.953 19.953 0 0 0-20.003 20.003v520.004c0 11.072 8.916 19.989 20.003 19.989h639.993c11.086 0 20.003-8.917 20.003-19.989V715.12a19.953 19.953 0 0 0-20.003-20.003zm79.997 79.997h479.999a19.962 19.962 0 0 1 20.003 20.003v359.995c0 11.087-10.895 26.322-20.003 20.003-37.202-25.834-59.995-59.994-100-59.994-46.532 0-90.332 40.006-140.007 39.991-39.991 0-59.994-119.988-119.989-119.988-60.009 0-65.235 34.042-120.003 139.991-5.093 9.847-20.003-8.916-20.003-20.003V795.116a19.962 19.962 0 0 1 20.003-20.003zm350.001 60.01c-38.78 0-70.003 31.221-70.003 69.987 0 38.781 31.222 70.004 70.003 70.004 38.78 0 70.003-31.223 70.003-70.004 0-38.766-31.222-69.988-70.003-69.988zm0 0" transform="rotate(.158) scale(.26461)" fill="url(#i)" stroke-width="11.339" stroke-linecap="round" stroke-linejoin="round" stroke="#212121"/></svg>
